!!!!SEGMENT: pl-wn--sd-xvi-qu-273--118_gomolka-mikolaj--chwalcie-pana-prze-dobroc-jego-niewymowna.krn
!!!cenid: 15xx:323
!!!COM: Gomółka, Mikołaj
!!!COM-rismid: pe30013343
!!!CDT: ~1535->1591/04/30
!!!CNT: Polish
!!!GTL: Melodiae na psalterz polski
!!!OTL: CXVIII. Chwalcie Pana prze dobroć Jego niewymowną
!!!ONB: PSAL: CXVIII. Confitemini domino quoniam bonus.
!!!PDT: 1580
!!!AGN: Sacred
!!!SMS-siglum: PL-Wn
!!!SMS-shelfmark: SD XVI.Qu.273
!!!SMS-shelfwork: 118 G
!!!NIFC-rismid:
!!!ONB-nifc: Melodiae na psalterz polski
**kern	**text	**kern	**text	**kern	**text	**kern	**text
*part4	*part4	*part3	*part3	*part2	*part2	*part1	*part1
*staff4	*staff4	*staff3	*staff3	*staff2	*staff2	*staff1	*staff1
*clefF4	*	*clefC3	*	*clefC3	*	*clefC1	*
*k[b-]	*	*k[b-]	*	*k[b-]	*	*k[b-]	*
*F:	*	*F:	*	*F:	*	*F:	*
*M2/1	*	*M2/1	*	*M2/1	*	*M2/1	*
*met(C|)	*	*met(C|)	*	*met(C|)	*	*met(C|)	*
*I"BASSUS.	*	*I"TENOR.	*	*I"ALTUS.	*	*I"CANTUS.	*
=1-	=1	=1-	=1	=1-	=1	=1-	=1
1F\	Chwal-	1A/	Chwal-	1c\	Chwal-	1f/	Chwal-
2BB-/	-ćie	2B-/	-ćie	2.d\	-ćie	2b-\	-ćie
2BB-/	pá-	2B-/	pá-	.	.	2b-\	pá-
.	.	.	.	4e\	.	.	.
=2-	=2	=2-	=2	=2-	=2	=2-	=2
2FF/	-ná	2c/	-ná	2f\	pá-	2a\	-ná
2F\	prʒe	2c/	prʒe	2f\	-ná	2cc\	prʒe
2BB-/	do-	2d\	do-	2d\	prʒe	2.b-\	do-
2BB-/	-broć	2B-/	-broć	2d\	do-	.	.
.	.	.	.	.	.	4a\	-broć
=3-	=3	=3-	=3	=3-	=3	=3-	=3
2C/	ie-	2c/	ie-	2e\	-broć	2g\	ie-
2G\	-go	2G/	-go	2d\	ie-	2b-\	-go
2.F\	nie-	1A/	nie-	2d\	-go	2.a\	nie-
.	.	.	.	2c/	nie-	.	.
4E\	.	.	.	.	.	4g/	-wy-
=4-	=4	=4-	=4	=4-	=4	=4-	=4
4D/	-wy-	2.B-/	-wy-	4f\	-wy-	1f/	-mo-
4C/	.	.	.	4e\	.	.	.
2BB-/	-mo-	.	.	2d\	-mo-	.	.
.	.	4A/	-mo-	.	.	.	.
2C/	-wną,	2G/	-wną,	2c\	-wną,	2e/	-wną,
2C/	I	2G/	I	2e\	I	2c/	I
=5-	=5	=5-	=5	=5-	=5	=5-	=5
!!LO:PB:g=original
2FF/	prʒe	2A/	prʒe	2c/	prʒe	2f/	prʒe
2FF/	.	2A/	.	2.c/	li-	2f/	.
2C/	li-	2G/	li-	.	.	2e/	li-
.	.	.	.	4d\	-tość	.	.
2C/	-tość	2c/	-tość	2e\	wie-	2.g/	-tość
=6-	=6	=6-	=6	=6-	=6	=6-	=6
2D/	wie-	2.B-/	wie-	2d\	-kom	.	.
.	.	.	.	.	.	4f/	wie-
2BB-/	-kom	.	.	2d\	.	1f/	-kom
.	.	4A/	-kom	.	.	.	.
1C/	ró-	4G/	.	2.c/	ró-	.	.
.	.	4F/	.	.	.	.	.
.	.	2G/	ró-	.	.	2e/	ró-
.	.	.	.	4B-/	.	.	.
=7-	=7	=7-	=7	=7-	=7	=7-	=7
*	*	*000/left	*	*000/left	*	*	*
000FF/	-wną.	000F/	-wną.	000A/	-wną.	000f\	-wną.
==	==	==	==	==	==	==	==
*-	*-	*-	*-	*-	*-	*-	*-
!!!RDF**kern: l = terminal long
!!!system-decoration: s1,s2,s3,s4
!!!ENC: Marta Lawrence
!!!END: 2020-02-19
!!!URL-scan: https://polona.pl/item/melodiae-na-psalterz-polski,Nzk3MTM4ODQ/273 Scan on Polona
!!!IIIF: https://polona.pl/iiif/item/Nzk3MTM4ODQ/manifest.json
